src/assets/images/progress.svg

<svg xmlns="http://www.w3.org/2000/svg" xml:space="preserve" id="Capa_1" x="0" y="0" style="enable-background:new 0 0 24 24" version="1.1" viewBox="0 0 24 24"><style>.st1{fill:#006338}</style><circle cx="12" cy="12" r="12" style="fill:#f4f4f4"/><circle cx="12" cy="12" r="11.2" class="st1"/><circle cx="12" cy="12" r="9.4" style="fill:#46aa6f"/><path d="M12 2.6c-5.2 0-9.4 4.2-9.4 9.4s4.2 9.4 9.4 9.4 9.4-4.2 9.4-9.4-4.2-9.4-9.4-9.4zm0 18.2c-4.9 0-8.8-4-8.8-8.8S7.1 3.2 12 3.2s8.8 3.9 8.8 8.8-3.9 8.8-8.8 8.8z" style="fill:#c6d552"/><path d="M13.7 16.9c1.1-.1.9-.6 1.2-1.6-.5-.1-1.4.7-1.2 1.6zm1.1-9.7c0 .2.6.8 1.2.6-.2-.6-.5-.5-1.2-.6zm.4 8.8c.9-.4.5-.7.6-1.7-.4.1-.9 1-.6 1.7zm1.2-6.2c-.1.3.3 1.1.9 1.1.1-.8-.2-.7-.9-1.1zM15.5 8c0 .3.5.9 1 .7-.1-.7-.4-.5-1-.7zm.6.8c-.1.3.4 1 1 1 0-.8-.3-.6-1-1zm-8.5 4.3c-.3.9-.7 1-.1 1.7.6-.4.4-1.5.1-1.7zm-.1-1.2c-.6.7-1 .8-.6 1.6.7-.2.9-1.3.6-1.6zm.3-3.1c-.7.4-1 .2-1 1 .7 0 1.1-.7 1-1zm-1.2 2.1c.5-.1 1-.9.9-1.1-.7.4-1 .3-.9 1.1zm0 1.4c.7-.2 1-1.2.9-1.5-.7.6-1.2.6-.9 1.5zM8.4 8c-.6.2-.9 0-1.1.7.6.2 1.1-.4 1.1-.7zm8.9 1.4c.5-.2.7-1 .5-1.3-.4.6-.7.6-.5 1.3zM17 7.2c-.2.7-.5.9-.1 1.3.5-.3.3-1.2.1-1.3zm.7 3.2c.6-.2.8-1.2.6-1.4-.6.6-.9.6-.6 1.4zm.1 1c.7-.1 1-1 .9-1.3-.7.5-1.1.4-.9 1.3zm-1.3-.7c-.2.4.1 1.4.9 1.5.3-.8-.2-.8-.9-1.5zm1.3 1.6c.7 0 1.2-.9 1.2-1.3-.8.6-1.3.4-1.2 1.3zm-1.5 2.5c.7-.7.2-.9-.1-1.7-.2.2-.4 1.3.1 1.7zm.1-8.4c-.2.7-.5.8-.1 1.3.5-.3.3-1.1.1-1.3zm.6 7.2c.4-.9-.1-.9-.6-1.6-.3.2-.1 1.3.6 1.6zM15.8 7c.3-.4 0-1.2-.2-1.3-.1.7-.4 1 .2 1.3zm-1.9 10.2c.2.7 1.3 1 1.7.8-.7-.7-.7-1.2-1.7-.8zm-5.7.7c.4.2 1.5-.1 1.7-.8-.9-.4-.9.1-1.7.8zm.8-1.3c-.9-.5-1-.1-1.9.4.3.4 1.5.3 1.9-.4zm-1.6-1.4c-.7-.7-.9-.3-1.8-.1.2.3 1.3.6 1.8.1zm.7.8c-.7-.7-.9-.3-1.8-.1.2.4 1.3.7 1.8.1zm.6-.1c.4-.7-.2-1.6-.6-1.7.1 1-.3 1.4.6 1.7zm7.8-.7c.5.5 1.6.3 1.8-.1-.9-.3-1.1-.7-1.8.1zm1-1.7c.7.1 1.5-.7 1.4-1.1-.9.3-1.3.1-1.4 1.1zm-.4.8c.6.4 1.6-.1 1.8-.4-1-.1-1.3-.5-1.8.4zM15 16.7c.4.7 1.6.7 1.9.4-.9-.5-1.1-1-1.9-.4zm-8.2-2.4c-.5-.9-.8-.5-1.8-.4.2.3 1.2.8 1.8.4zm9 1.7c.5.5 1.6.3 1.8-.1-.9-.2-1.1-.6-1.8.1z" class="st1"/><path d="M13.1 17.8c-.1-.1-.3-.2-.5-.2-.1 0-.2-.1-.4-.1 1.5-.1 2.7-.7 3.7-1.7s1.6-2.5 1.6-4.2-.6-3.1-1.6-4.2c-.2-.2-.4-.4-.7-.6-.1-.9-.5-.7-1.3-1-.1.4.6 1.2 1.2 1.1.2.2.5.4.7.6 1 1 1.6 2.5 1.6 4.1s-.6 3.1-1.6 4.1-2.4 1.7-4 1.7S9 16.7 8 15.7s-1.6-2.5-1.6-4.1.6-3 1.6-4.1c.2-.2.5-.4.7-.6.6 0 1.2-.7 1.2-1.1-.8.3-1.2.1-1.3 1-.2.2-.4.5-.6.7-1 1-1.6 2.5-1.6 4.2s.6 3 1.6 4.1c1 1 2.3 1.6 3.7 1.7-.5.2-1.6.8-1.6.9 0 .1.1.1.1.1h.1c.1-.1.2-.2.4-.3.1-.1.3-.2.4-.2.1-.1.7-.4.9-.4.2.1.8.4.9.4.1.1.3.2.4.2.1.1.2.2.4.3h.1s.1 0 .1-.1-.6-.6-.8-.6zM7.5 6.4c-.2.2-.4 1 .1 1.3.4-.4.1-.6-.1-1.3zm-.6.8c-.2.1-.4 1 .1 1.4.5-.6.2-.7-.1-1.4z" class="st1"/><path d="M8.3 5.7c-.2.2-.5.9-.2 1.3.6-.3.3-.6.2-1.3zm.9 1.5c-.7.1-.9-.1-1.1.6.5.1 1.1-.3 1.1-.6zm1 9.7c.2-.8-.7-1.6-1.2-1.6.4 1 .1 1.4 1.2 1.6zm-3.8-3.4c-.1-1-.5-.8-1.4-1.1 0 .4.7 1.2 1.4 1.1zm-.3-2.1c.2-.9-.2-.8-.9-1.3-.1.2.2 1.1.9 1.3zm.5-2c.3-.7-.1-.7-.5-1.3-.2.3 0 1.1.5 1.3zm-.5 2.9c.1-.9-.4-.8-1.2-1.3 0 .5.5 1.4 1.2 1.3zm.1-1.9c.3-.8-.1-.8-.6-1.5-.2.3 0 1.2.6 1.5z" class="st1"/></svg>

<?xml version="1.0" encoding="utf-8"?>
<!-- Generator: Adobe Illustrator 27.0.0, SVG Export Plug-In . SVG Version: 6.00 Build 0)  -->
<svg version="1.1" id="Capa_1" xmlns="http://www.w3.org/2000/svg" xmlns:xlink="http://www.w3.org/1999/xlink" x="0px" y="0px"
	 viewBox="0 0 24 24" style="enable-background:new 0 0 24 24;" xml:space="preserve">
<style type="text/css">
	.st0{fill:#F4F4F4;}
	.st1{fill:#006338;}
	.st2{fill:#46AA6F;}
	.st3{fill:#C6D552;}
</style>
<circle class="st0" cx="12" cy="12" r="12"/>
<circle class="st1" cx="12" cy="12" r="11.2"/>
<circle class="st2" cx="12" cy="12" r="9.4"/>
<path class="st3" d="M12,2.6c-5.2,0-9.4,4.2-9.4,9.4s4.2,9.4,9.4,9.4s9.4-4.2,9.4-9.4S17.2,2.6,12,2.6z M12,20.8
	c-4.9,0-8.8-4-8.8-8.8S7.1,3.2,12,3.2s8.8,3.9,8.8,8.8S16.9,20.8,12,20.8z"/>
<g>
	<path class="st1" d="M13.7,16.9c1.1-0.1,0.9-0.6,1.2-1.6C14.4,15.2,13.5,16,13.7,16.9z M14.8,7.2c0,0.2,0.6,0.8,1.2,0.6
		C15.8,7.2,15.5,7.3,14.8,7.2z M15.2,16c0.9-0.4,0.5-0.7,0.6-1.7C15.4,14.4,14.9,15.3,15.2,16z M16.4,9.8c-0.1,0.3,0.3,1.1,0.9,1.1
		C17.4,10.1,17.1,10.2,16.4,9.8z M15.5,8c0,0.3,0.5,0.9,1,0.7C16.4,8,16.1,8.2,15.5,8z M16.1,8.8c-0.1,0.3,0.4,1,1,1
		C17.1,9,16.8,9.2,16.1,8.8z M7.6,13.1c-0.3,0.9-0.7,1-0.1,1.7C8.1,14.4,7.9,13.3,7.6,13.1z M7.5,11.9c-0.6,0.7-1,0.8-0.6,1.6
		C7.6,13.3,7.8,12.2,7.5,11.9z M7.8,8.8c-0.7,0.4-1,0.2-1,1C7.5,9.8,7.9,9.1,7.8,8.8z M6.6,10.9c0.5-0.1,1-0.9,0.9-1.1
		C6.8,10.2,6.5,10.1,6.6,10.9z M6.6,12.3c0.7-0.2,1-1.2,0.9-1.5C6.8,11.4,6.3,11.4,6.6,12.3z M8.4,8C7.8,8.2,7.5,8,7.3,8.7
		C7.9,8.9,8.4,8.3,8.4,8z M17.3,9.4c0.5-0.2,0.7-1,0.5-1.3C17.4,8.7,17.1,8.7,17.3,9.4z M17,7.2c-0.2,0.7-0.5,0.9-0.1,1.3
		C17.4,8.2,17.2,7.3,17,7.2z M17.7,10.4c0.6-0.2,0.8-1.2,0.6-1.4C17.7,9.6,17.4,9.6,17.7,10.4z M17.8,11.4c0.7-0.1,1-1,0.9-1.3
		C18,10.6,17.6,10.5,17.8,11.4z M16.5,10.7c-0.2,0.4,0.1,1.4,0.9,1.5C17.7,11.4,17.2,11.4,16.5,10.7z M17.8,12.3
		c0.7,0,1.2-0.9,1.2-1.3C18.2,11.6,17.7,11.4,17.8,12.3z M16.3,14.8c0.7-0.7,0.2-0.9-0.1-1.7C16,13.3,15.8,14.4,16.3,14.8z
		 M16.4,6.4c-0.2,0.7-0.5,0.8-0.1,1.3C16.8,7.4,16.6,6.6,16.4,6.4z M17,13.6c0.4-0.9-0.1-0.9-0.6-1.6C16.1,12.2,16.3,13.3,17,13.6z
		 M15.8,7c0.3-0.4,0-1.2-0.2-1.3C15.5,6.4,15.2,6.7,15.8,7z M13.9,17.2c0.2,0.7,1.3,1,1.7,0.8C14.9,17.3,14.9,16.8,13.9,17.2z
		 M8.2,17.9c0.4,0.2,1.5-0.1,1.7-0.8C9,16.7,9,17.2,8.2,17.9z M9,16.6c-0.9-0.5-1-0.1-1.9,0.4C7.4,17.4,8.6,17.3,9,16.6z M7.4,15.2
		c-0.7-0.7-0.9-0.3-1.8-0.1C5.8,15.4,6.9,15.7,7.4,15.2z M8.1,16c-0.7-0.7-0.9-0.3-1.8-0.1C6.5,16.3,7.6,16.6,8.1,16z M8.7,15.9
		c0.4-0.7-0.2-1.6-0.6-1.7C8.2,15.2,7.8,15.6,8.7,15.9z M16.5,15.2c0.5,0.5,1.6,0.3,1.8-0.1C17.4,14.8,17.2,14.4,16.5,15.2z
		 M17.5,13.5c0.7,0.1,1.5-0.7,1.4-1.1C18,12.7,17.6,12.5,17.5,13.5z M17.1,14.3c0.6,0.4,1.6-0.1,1.8-0.4
		C17.9,13.8,17.6,13.4,17.1,14.3z M15,16.7c0.4,0.7,1.6,0.7,1.9,0.4C16,16.6,15.8,16.1,15,16.7z M6.8,14.3C6.3,13.4,6,13.8,5,13.9
		C5.2,14.2,6.2,14.7,6.8,14.3z M15.8,16c0.5,0.5,1.6,0.3,1.8-0.1C16.7,15.7,16.5,15.3,15.8,16z"/>
	<path class="st1" d="M13.1,17.8c-0.1-0.1-0.3-0.2-0.5-0.2c-0.1,0-0.2-0.1-0.4-0.1c1.5-0.1,2.7-0.7,3.7-1.7s1.6-2.5,1.6-4.2
		s-0.6-3.1-1.6-4.2c-0.2-0.2-0.4-0.4-0.7-0.6c-0.1-0.9-0.5-0.7-1.3-1c-0.1,0.4,0.6,1.2,1.2,1.1c0.2,0.2,0.5,0.4,0.7,0.6
		c1,1,1.6,2.5,1.6,4.1s-0.6,3.1-1.6,4.1s-2.4,1.7-4,1.7S9,16.7,8,15.7s-1.6-2.5-1.6-4.1S7,8.6,8,7.5c0.2-0.2,0.5-0.4,0.7-0.6
		c0.6,0,1.2-0.7,1.2-1.1c-0.8,0.3-1.2,0.1-1.3,1C8.4,7,8.2,7.3,8,7.5c-1,1-1.6,2.5-1.6,4.2s0.6,3,1.6,4.1c1,1,2.3,1.6,3.7,1.7
		c-0.5,0.2-1.6,0.8-1.6,0.9s0.1,0.1,0.1,0.1h0.1c0.1-0.1,0.2-0.2,0.4-0.3c0.1-0.1,0.3-0.2,0.4-0.2c0.1-0.1,0.7-0.4,0.9-0.4
		c0.2,0.1,0.8,0.4,0.9,0.4c0.1,0.1,0.3,0.2,0.4,0.2c0.1,0.1,0.2,0.2,0.4,0.3h0.1c0,0,0.1,0,0.1-0.1S13.3,17.8,13.1,17.8z M7.5,6.4
		c-0.2,0.2-0.4,1,0.1,1.3C8,7.3,7.7,7.1,7.5,6.4z M6.9,7.2C6.7,7.3,6.5,8.2,7,8.6C7.5,8,7.2,7.9,6.9,7.2z"/>
	<path class="st1" d="M8.3,5.7C8.1,5.9,7.8,6.6,8.1,7C8.7,6.7,8.4,6.4,8.3,5.7z M9.2,7.2C8.5,7.3,8.3,7.1,8.1,7.8
		C8.6,7.9,9.2,7.5,9.2,7.2z M10.2,16.9c0.2-0.8-0.7-1.6-1.2-1.6C9.4,16.3,9.1,16.7,10.2,16.9z M6.4,13.5c-0.1-1-0.5-0.8-1.4-1.1
		C5,12.8,5.7,13.6,6.4,13.5z M6.1,11.4c0.2-0.9-0.2-0.8-0.9-1.3C5.1,10.3,5.4,11.2,6.1,11.4z M6.6,9.4c0.3-0.7-0.1-0.7-0.5-1.3
		C5.9,8.4,6.1,9.2,6.6,9.4z M6.1,12.3c0.1-0.9-0.4-0.8-1.2-1.3C4.9,11.5,5.4,12.4,6.1,12.3z M6.2,10.4c0.3-0.8-0.1-0.8-0.6-1.5
		C5.4,9.2,5.6,10.1,6.2,10.4z"/>
</g>
</svg>
